dist/svgs/unicons/line/folder-medical.svg

<svg xmlns="http://www.w3.org/2000/svg" viewBox="0 0 24 24"><path d="M14 12.5h-1v-1a1 1 0 00-2 0v1h-1a1 1 0 000 2h1v1a1 1 0 002 0v-1h1a1 1 0 000-2zm5-7h-6.28l-.32-1a3 3 0 00-2.84-2H5a3 3 0 00-3 3v13a3 3 0 003 3h14a3 3 0 003-3v-10a3 3 0 00-3-3zm1 13a1 1 0 01-1 1H5a1 1 0 01-1-1v-13a1 1 0 011-1h4.56a1 1 0 01.95.68l.54 1.64a1 1 0 00.95.68h7a1 1 0 011 1z"/></svg>

<svg xmlns="http://www.w3.org/2000/svg" viewBox="0 0 24 24"><path d="M14,12.5H13v-1a1,1,0,0,0-2,0v1H10a1,1,0,0,0,0,2h1v1a1,1,0,0,0,2,0v-1h1a1,1,0,0,0,0-2Zm5-7H12.72l-.32-1a3,3,0,0,0-2.84-2H5a3,3,0,0,0-3,3v13a3,3,0,0,0,3,3H19a3,3,0,0,0,3-3V8.5A3,3,0,0,0,19,5.5Zm1,13a1,1,0,0,1-1,1H5a1,1,0,0,1-1-1V5.5a1,1,0,0,1,1-1H9.56a1,1,0,0,1,.95.68l.54,1.64A1,1,0,0,0,12,7.5h7a1,1,0,0,1,1,1Z"/></svg>
